T: Gan Ainm
M: 4/4
L: 1/8
K: Gmaj
|: (3DGA |
B2 B2 B>AG>E | D2 D2 D>B,D>G | F2 F2 F>Dd>c | B2 B2 A2 (3DGA |
B2 B2 B>AG>E | D2 D2 D>B,D>G | F2 F2 F>Dd>F | G2 B2 G2 :|
|: D>C |
B,2 D2 D>B,C>D | C2 E2 E2 A>G | F2 d2 d>cA>F | G2 E2 D2 (3EDC |
B,2 D2 D>B,C>D | C2 E2 E2 A>G | F2 d2 d>cA>F | G2 B2 G2 :|
